X:1
T:Fieldtown Processional
C:Traditional
M:4/4
L:1/4
Q:1/4=112
K:D
D E | F#E F#D | E E E2 | A G/2A/2 F#A | F# D D2 | G/2A/2 B c d | e c d B | F# D E =C | D3 D |]
